icons/square-arrow-up.svg

<svg xmlns="http://www.w3.org/2000/svg" width="24" height="24" viewBox="0 0 24 24">
  <path d="M20,2 C21.1045695,2 22,2.8954305 22,4 L22,20 C22,21.1045695 21.1045695,22 20,22 L4,22 C2.8954305,22 2,21.1045695 2,20 L2,4 C2,2.8954305 2.8954305,2 4,2 L20,2 Z M7.63603897,9.94974747 L7.55285036,10.0439548 C7.24782547,10.436246 7.27555501,11.0034771 7.63603897,11.363961 C8.02656326,11.7544853 8.65972824,11.7544853 9.05025253,11.363961 L9.05025253,11.363961 L10.9991458,9.414 L11,17 L11.0067277,17.1166211 C11.0644928,17.6139598 11.4871642,18 12,18 C12.5522847,18 13,17.5522847 13,17 L13,17 L12.9991458,9.414 L14.9497475,11.363961 L15.0439548,11.4471496 C15.436246,11.7521745 16.0034771,11.724445 16.363961,11.363961 C16.7544853,10.9734367 16.7544853,10.3402718 16.363961,9.94974747 L16.363961,9.94974747 L12.7071068,6.29289322 L12.625449,6.21968877 C12.6225945,6.21739784 12.6197272,6.21512226 12.6128994,6.20970461 C12.6041603,6.2029095 12.5953343,6.19627953 12.5866395,6.19006311 C12.5664533,6.17541687 12.5456983,6.16150681 12.5238,6.14789148 C12.5087703,6.13863517 12.4935488,6.12981337 12.4786822,6.12179647 C12.4604898,6.11185933 12.4419547,6.10247102 12.4232215,6.09367336 L12.4232215,6.09367336 L12.3710585,6.07110396 C12.3515792,6.06331574 12.3317977,6.05612249 12.3121425,6.04973809 C12.2968513,6.04472872 12.2814633,6.04009773 12.2658396,6.03572097 C12.2444365,6.02983363 12.2227461,6.0246398 12.2007258,6.02024007 C12.1834538,6.01671819 12.1661068,6.01365592 12.1489612,6.01101934 L12.1489612,6.01101934 L12.081,6.003 L12.029,6.001 L12.0181458,6.001 L12,6 L12,6 L11.9806591,6.0001833 L11.9409686,6.0017331 L11.9409686,6.0017331 L11.9101982,6.00397748 C11.8903051,6.00574796 11.8705796,6.00810098 11.8515331,6.0110178 C11.834051,6.01362808 11.8166247,6.01670217 11.7992059,6.02016515 C11.7772539,6.0246398 11.7555635,6.02983363 11.734007,6.03584514 C11.7182588,6.04017413 11.7025958,6.04489522 11.6872762,6.04987089 C11.6689468,6.0559003 11.6508514,6.06244532 11.6333026,6.06938695 C11.613165,6.07731015 11.5932325,6.08591191 11.5729619,6.09550623 C11.5549095,6.1040443 11.5371537,6.1131069 11.5201698,6.12234168 C11.5064305,6.12986112 11.4928304,6.13772719 11.4793398,6.14606743 C11.4583066,6.15891923 11.4377852,6.17252629 11.4182204,6.1864634 L11.4182204,6.1864634 L11.376,6.218 L11.374551,6.21968877 L11.367,6.225 L11.375,6.219 L11.355,6.236 L11.367,6.225 L11.3538862,6.2366872 L11.3538862,6.2366872 L11.2928932,6.29289322 L7.63603897,9.94974747 Z"/>
</svg>

<svg xmlns="http://www.w3.org/2000/svg" viewBox="0 0 24 24">
  <path d="M20 2a2 2 0 0 1 2 2v16a2 2 0 0 1-2 2H4a2 2 0 0 1-2-2V4c0-1.1.9-2 2-2h16zM7.64 9.95l-.09.1a1 1 0 0 0 1.5 1.31L11 9.41v7.71a1 1 0 0 0 2-.12V9.41l1.95 1.95.1.09a1 1 0 0 0 1.31-1.5l-3.65-3.66-.08-.07a3.01 3.01 0 0 0-.15-.1 1.02 1.02 0 0 0-.06-.03l-.05-.02a.95.95 0 0 0-.22-.06h-.13L12 6h-.09a.94.94 0 0 0-.34.1 1.06 1.06 0 0 0-.15.09l-.04.03h-.01l-.01.02v-.02.02l-.07.05-3.65 3.66z"/>
</svg>
